X:1
T:[ID 11-19a]
T:[ID 11-19a]
T:Bezeichnung standardisiert: [Keine Bezeichnung]; In dieser Quelle auch als: Keine Bezeichnung In dieser Quelle auch als: Menuet
T:Urheber unbekannt Datum in der hier transkribierten schriftlichen Quelle: vermutlich um 1800
C:Urheber unbekannt
C:Datum in der hier transkribierten schriftlichen Quelle: vermutlich um 1800
L:1/8
M:3/4
K:G
V:1 treble 
V:1
 G4 (3AGF | G2 c2 B2 | B4 (3cBA | B2 e2 d2 | g4"^1)" x2 | d4 dg | d2 c2 B2 | A2 G4 :: D2 D2 dc | %9
 B3 c d2 | D2 D2 cB | A3"^1)" B/d/ B2 | G4 (3AGF | G2 c2 B2 | (3edc"^1)" x2 x2 | G4 ::[M:3/4] D2 | %17
 G3 A B2 | G4 D2 | E3 FGE | E2 D2 D2 | G3 A B2 | G4 g2 | (3edc B2 A2 | G4 :: d2 e2 d2 | d2 B2 c2 | %27
 d2 B2 c2 | d2 B2 c2 | c3 d c2 | c2 A2 B2 |"^1)" x2 G2 F2 | G6 :| %33

